X: 158
T:Stanes Morris
H:First printed in the "William Ballet Lute Book" (1595).  It is not
H:known that the town of Staines, on the Thames, had any connection with
H:this tune.
M:C|
L:1/8
Q:140
Z:Playford.abc
K:GDor
d2g2d2^f2|g2 fe d3e|fgf_e d2 cB|AGAB G4||
Bcde d2 cB|AGAB G4||
B2B2 F2F2|GABc d3e|fgfe d2 cB|AGAB G4||

